!!!OTL: Der Muskatbaum Spewaj mi, spewaj socholask,
!!!ARE: Europa, Mitteleuropa, Deutschland (), Lausitz; sorbisch
!!!YOR: 6, S. 147
!!    1893 gedruckt
!!!SCT: Q2130B
!!!YEM: Copyright 1995, estate of Helmut Schaffrath.
**kern
*ICvox
*Ivox
*M3/4
*k[]
*C:
{4g
=1
2cc
4cc
=2
4b
4a
4g
=3
2a
4b
=4
2cc}
{4b
=5
4a
4b
4cc
=6
2dd
4b
=7
4cc
4b
4a
=8
2g}
{4g
=9
2cc
4g
=10
2a
8f
8d
=11
4g
4g
4f
=12
2e}
{4d
=13
2e
4a
=14
2g
4g
=15
4f
4e
4d
=16
2c}
==
!!!AGN: Ballade, Werbung, Standesunterschied
!! Sorbische Fassung der Ballade.
!!!ONB: ESAC (Essen Associative Code) Database: BALLADE
!!!AMT: simple triple
!!!AIN: vox
!!!EED: Helmut Schaffrath
!!!EEV: 1.0
*-
